X:213
%%etbk:tnset id:45,pos:1,rep:3x,ant:
%%etbk:wsite http://www.trad.katesplacedoolin.com/tunes/reelofrio.html
%%etbk:pldat 2015-03-06T17:52,2014-12-31T15:51,2014-12-18T18:55,2014-12-17T19:05,2014-12-06T16:07,2014-06-07T14:59,2014-05-20T16:56,2014-05-13T18:37,2014-03-26T17:18,2014-03-14T18:23,2013-11-19T15:05,2013-11-17T16:01,2013-11-12T17:39,2013-11-10T15:35,2013-05-14T18:58
T:Reel of Rio, The
Z: Piano Box Version by Martin Fleischmann
H: Created 2013-02-19 /  Last Modified 2013-03-26
M:4/4
L:1/8
C:Sean Ryan
R:Reel
K: Gmaj
|: "G"!1!D!2!E!3!G!4!A !3!B!2!A!3!B!1!d | !2!e!4!g!3!g!4!g !5!agef | !4!gede !4!ge!1!d!3!B | "D"!4!c!2!ABA !1!G!2!EEE|
"G"!1!D!2!E!3!G!4!A !3!B!2!A!3!B!1!d | !2!e!4!g!3!g!4!g !5!agef | !4!gede !4!ge!1!d!3!B |1 "D"!4!c!2!ABA "G"!1!G2G!2!E:|2 "D"!4!c!2!ABA "G"!1!G2!2!B!3!c||
|: "G"!1!d!3!ggg !4!aggg | !5!b!3!gag !2!e!1!d!2!B!4!d | "em"!5!e!3!BB!2!A !1!G!2!A!3!B!1!d | !4!ge!1!d!3!B "D"!2!AB!1!G!2!E|
"G"!1!D!2!E!3!G!4!A !3!B!2!A!3!B!1!d | !2!e!4!g!3!g!4!g !5!agef | !4!gede !4!ge!1!d!3!B|1 "D"!4!c!2!ABA "G"!1!G2!2!B!3!c:|2 "D"!4!c!2!ABA "G"!1!G2G!2!E||


